packages/ffe-icons/icons/open/300/sm/background_grid_small.svg

<svg xmlns="http://www.w3.org/2000/svg" height="20" viewBox="0 -960 960 960" width="20"><path d="M228.309-216h80.692v-93.001H216v80.692q0 4.616 3.846 8.463 3.847 3.846 8.463 3.846ZM361-216h93.001v-93.001H361V-216Zm144.999 0H599v-93.001h-93.001V-216Zm145 0h80.692q4.616 0 8.463-3.846 3.846-3.847 3.846-8.463v-80.692h-93.001V-216ZM216-650.999h93.001V-744h-80.692q-4.616 0-8.463 3.846-3.846 3.847-3.846 8.463v80.692Zm0 145h93.001V-599H216v93.001ZM216-361h93.001v-93.001H216V-361Zm145-289.999h93.001V-744H361v93.001Zm0 145h93.001V-599H361v93.001ZM361-361h93.001v-93.001H361V-361Zm144.999-289.999H599V-744h-93.001v93.001Zm0 145H599V-599h-93.001v93.001Zm0 144.999H599v-93.001h-93.001V-361Zm145-289.999H744v-80.692q0-4.616-3.846-8.463-3.847-3.846-8.463-3.846h-80.692v93.001Zm0 145H744V-599h-93.001v93.001Zm0 144.999H744v-93.001h-93.001V-361Zm-422.69 196.999q-27.008 0-45.658-18.65-18.65-18.65-18.65-45.658v-503.382q0-27.008 18.65-45.658 18.65-18.65 45.658-18.65h503.382q27.008 0 45.658 18.65 18.65 18.65 18.65 45.658v503.382q0 27.008-18.65 45.658-18.65 18.65-45.658 18.65H228.309Z"/></svg>

<svg xmlns="http://www.w3.org/2000/svg" height="20" viewBox="0 -960 960 960" width="20"><path d="M228.31-216H309v-93h-93v80.69q0 4.62 3.85 8.46 3.84 3.85 8.46 3.85ZM361-216h93v-93h-93v93Zm145 0h93v-93h-93v93Zm145 0h80.69q4.62 0 8.46-3.85 3.85-3.84 3.85-8.46V-309h-93v93ZM216-651h93v-93h-80.69q-4.62 0-8.46 3.85-3.85 3.84-3.85 8.46V-651Zm0 145h93v-93h-93v93Zm0 145h93v-93h-93v93Zm145-290h93v-93h-93v93Zm0 145h93v-93h-93v93Zm0 145h93v-93h-93v93Zm145-290h93v-93h-93v93Zm0 145h93v-93h-93v93Zm0 145h93v-93h-93v93Zm145-290h93v-80.69q0-4.62-3.85-8.46-3.84-3.85-8.46-3.85H651v93Zm0 145h93v-93h-93v93Zm0 145h93v-93h-93v93ZM228.31-164q-27.01 0-45.66-18.65Q164-201.3 164-228.31v-503.38q0-27.01 18.65-45.66Q201.3-796 228.31-796h503.38q27.01 0 45.66 18.65Q796-758.7 796-731.69v503.38q0 27.01-18.65 45.66Q758.7-164 731.69-164H228.31Z"/></svg>
